X: 33556
T: Rakes Of Clonmel, The
R: jig
M: 6/8
K: Adorian
|:A/B/|cBA GED|EA^G A2 B|cBc Adc|BGF G2 e/d/|
cBc d^cd|edc Bcd|ecA GED|EA^G A2:|
|:a|a^ga aed|cA^G A2 B/d/|gfg gdc|BGF G2 A/B/|
cBc d^cd|edc B/c/dB|ecA G2 D|EA^G A2:|

